packages/icons/raw/imported/MediaMice.svg

<svg width="32" height="32" viewBox="0 0 32 32" fill="none" xmlns="http://www.w3.org/2000/svg">
<path d="M23.3154 13.8077V15.2692C23.3154 19.3052 20.0436 22.5769 16.0077 22.5769C11.9718 22.5769 8.7 19.3052 8.7 15.2692V13.8077M16.0077 23.3077V25.5M16.0077 25.5H18.9308M16.0077 25.5H13.0846M16.0077 19.6538C13.5861 19.6538 11.6231 17.6908 11.6231 15.2692V10.8846C11.6231 8.46306 13.5861 6.5 16.0077 6.5C18.4292 6.5 20.3923 8.46306 20.3923 10.8846V15.2692C20.3923 17.6908 18.4292 19.6538 16.0077 19.6538Z" stroke="black" stroke-linecap="round" stroke-linejoin="round"/>
</svg>

<svg width="32" height="32" fill="none" xmlns="http://www.w3.org/2000/svg"><path d="M23.315 13.808v1.461a7.308 7.308 0 1 1-14.615 0v-1.461m7.308 9.5V25.5m0 0h2.923m-2.923 0h-2.923m2.923-5.846a4.385 4.385 0 0 1-4.385-4.385v-4.384a4.385 4.385 0 1 1 8.77 0v4.384a4.385 4.385 0 0 1-4.385 4.385Z" stroke="#000" stroke-linecap="round" stroke-linejoin="round"/></svg>
